X:1
T:Tell Me the Story of Jesus
T:Tell Me the Story of Jesus
T:John Robson Sweney
T:Frances Jane (Fanny) Crosby, 1880
T:Public Domain Courtesy of the Cyber Hymnal™
T:Public Domain Courtesy of the Cyber Hymnal™
C:John Robson Sweney
Z:Public Domain
Z:Courtesy of the Cyber Hymnal™
%%score ( 1 2 ) ( 3 4 )
L:1/8
Q:1/4=105
M:4/4
K:Eb
V:1 treble 
V:2 treble 
V:3 bass 
V:4 bass 
V:1
 [EG]2 [EG]>[EF] E2 [EG]>[FA] | [GB]4 [EG]4 | [FB]2 [DF]>[EG] [FA]2 [EG]>[DF] | [EG]8 | %4
w: 1.~Tell me the sto- ry of|Je- sus,|Write on my heart ev- ery|word.|
w: 2.~Fast- ing a- lone in the|des- ert,|Tell of the days that are|past.|
w: 3.~Tell of the cross where they|nailed Him,|Writh- ing in an- guish and|pain.|
 [EG]2 [EG]>[EG] [EA]2 [EB]>[Ec] | [EB]4 [EG]4 | [FB]2 [DF]>[EG] [FA]2 [EG]>[DF] | E8 | %8
w: Tell me the sto- ry most|pre- cious,|Sweet- est that e- ver was|heard.|
w: How for our sins He was|tempt- ed,|Yet was tri- umph- ant at|last.|
w: Tell of the grave where they|laid Him,|Tell how He liv- eth a-|gain.|
 [Ec]2 [Ec]>[Ec] [Ee]2 [Ed]>[Ac] | [Ac]4 [GB]4 | [FB]2 [Ac]>[GB] [FA]2 [DB]>[FA] | [EG]8 | %12
w: Tell how the an- gels in|chor- us,|Sang as they we- lcomed His|birth.|
w: Tell of the years of His|la- bor,|Tell of the sor- row He|bore.|
w: Love in that sto- ry so|ten- der,|Clear- er than e- ver I|see.|
 [Ec]2 [Ec]>[Ec] [Ee]2 [Ed]>[Ac] | [Ac]4 [GB]4 | [FB]2 [DF]>[Fd] ([Fd][Ec]) [DB]>[E=A] | %15
w: “Glo- ry to God in the|high- est!|Peace and good tid- * ings to|
w: He was des- pised and af-|flict- ed,|Home- less, re- ject- * ed and|
w: Stay, let me weep while you|whis- per,|Love paid the ran- * som for|
 ([DB]4 [FA]4) ||"^Refrain" [EG]2 [EG]>[EF] E2 [EG]>[FA] | [GB]4 [EG]4 | %18
w: earth.” *|||
w: poor. *|Tell me the sto- ry of|Je- sus,|
w: me. *|||
 [FB]2 [DF]>[EG] [FA]2 [EG]>[DF] | [EG]8 | [EG]2 [EG]>[EG] [EA]2 [EB]>[Ec] | [EB]4 [EG]4 | %22
w: ||||
w: Write on my heart ev- ery|word.|Tell me the sto- ry most|pre- cious,|
w: ||||
 [FB]2 [DF]>[EG] [FA]2 [EG]>[DF] | E8 |] %24
w: ||
w: Swee- test that e- ver was|heard.|
w: ||
V:2
 x4 E2 x2 | x8 | x8 | x8 | x8 | x8 | x8 | E8 | x8 | x8 | x8 | x8 | x8 | x8 | x8 | x8 || x4 E2 x2 | %17
 x8 | x8 | x8 | x8 | x8 | x8 | E8 |] %24
V:3
 [E,B,]2 [E,B,]>[E,A,] [E,G,]2 [E,B,]>[E,B,] | [E,E]4 [E,B,]4 | %2
 [B,,D]2 [B,,B,]>[B,,B,] [B,,B,]2 [B,,B,]>[B,,B,] | [E,B,]8 | %4
 [E,B,]2 [_D,B,]>[D,B,] [C,A,]2 [B,,G,]>[A,,A,] | [E,G,]4 [E,B,]4 | %6
 [B,,D]2 [B,,B,]>[B,,B,] [B,,B,]2 [B,,B,]>[B,,A,] | [E,G,]8 | A,2 A,>A, [A,C]2 [A,C]>[A,E] | %9
 [E,E]4 [E,E]4 | [B,,D]2 [B,,D]>[B,,B,] [B,,B,]2 [B,,B,]>[B,,B,] | [E,B,]8 | %12
 A,2 A,>A, [A,C]2 [A,C]>[A,E] | [E,E]4 [E,E]4 | [F,D]2 [F,B,]>[F,B,] (B,=A,) [F,B,]>[F,C] | %15
 [B,,B,]8 || [E,B,]2 [E,B,]>[E,A,] [E,G,]2 [E,B,]>[E,B,] | [E,E]4 [E,B,]4 | %18
 [B,,D]2 [B,,B,]>[B,,B,] [B,,B,]2 [B,,B,]>[B,,B,] | [E,B,]8 | %20
 [E,B,]2 [_D,B,]>[D,B,] [C,A,]2 [B,,G,]>[A,,A,] | [E,G,]4 [E,B,]4 | %22
 [B,,D]2 [B,,B,]>[B,,B,] [B,,B,]2 [B,,B,]>[B,,A,] | [E,G,]8 |] %24
V:4
 x8 | x8 | x8 | x8 | x8 | x8 | x8 | x8 | x8 | x8 | x8 | x8 | x8 | x8 | x4 F,2 x2 | x8 || x8 | x8 | %18
 x8 | x8 | x8 | x8 | x8 | x8 |] %24

